X:19
T:Julia Delaney
M:C|
R:reel
C:Traditional
K:Ddor
dcAG F2 DF | E2 CE FEDc | dcAG F2 DF | Addc defe |
dcAG F2 DF | E2 CE FEDc | dcAG F2 DF |[1 Add^c d2 A2 :|[2 Add^c d2 de |]
|: f2 fe fagf | ecgc acgc | fede fagf | edce d2 de |
f2 fe fagf | ecgc acgc | fedc AGFG |[1 Add^c d2 de :|[2 Add^c d2 A2 |]

